astro/public/img/icons/backend-api.svg

<?xml version="1.0" encoding="UTF-8"?>
<svg width="66px" height="66px" viewBox="0 0 66 66" version="1.1" xmlns="http://www.w3.org/2000/svg" xmlns:xlink="http://www.w3.org/1999/xlink">
    <title>backend-api</title>
    <defs>
        <circle id="path-1" cx="30" cy="30" r="30"></circle>
        <filter x="-8.3%" y="-6.7%" width="116.7%" height="116.7%" filterUnits="objectBoundingBox" id="filter-2">
            <feMorphology radius="0.5" operator="dilate" in="SourceAlpha" result="shadowSpreadOuter1"></feMorphology>
            <feOffset dx="0" dy="1" in="shadowSpreadOuter1" result="shadowOffsetOuter1"></feOffset>
            <feGaussianBlur stdDeviation="1" in="shadowOffsetOuter1" result="shadowBlurOuter1"></feGaussianBlur>
            <feColorMatrix values="0 0 0 0 0   0 0 0 0 0   0 0 0 0 0  0 0 0 0.11324369 0" type="matrix" in="shadowBlurOuter1"></feColorMatrix>
        </filter>
        <linearGradient x1="31.7115415%" y1="17.6855056%" x2="93.7400704%" y2="71.485629%" id="linearGradient-3">
            <stop stop-color="#6366F1" offset="0%"></stop>
            <stop stop-color="#000000" offset="100%"></stop>
        </linearGradient>
    </defs>
    <g id="Docs" stroke="none" stroke-width="1" fill="none" fill-rule="evenodd">
        <g id="quickstart-secondary-page" transform="translate(-699.000000, -2045.000000)">
            <g id="backend-api" transform="translate(702.000000, 2047.000000)">
                <g id="Oval-Copy-2">
                    <use fill="black" fill-opacity="1" filter="url(#filter-2)" xlink:href="#path-1"></use>
                    <use fill="#F1F5F9" fill-rule="evenodd" xlink:href="#path-1"></use>
                </g>
                <g id="coding" transform="translate(12.000000, 15.529412)" fill="url(#linearGradient-3)" fill-rule="nonzero">
                    <path d="M35.631797,13.5341286 L27.306734,4.61520185 C26.7950661,4.06644326 25.9409737,4.04141566 25.3982977,4.55924525 C24.8564655,5.07664824 24.8312934,5.94074037 25.3433832,6.48907235 L32.7941037,14.4706017 L25.3433832,22.4530554 C24.8312934,23.0013874 24.8564655,23.8650529 25.3982977,24.3828825 C25.6592997,24.6318076 25.9927241,24.755097 26.3248828,24.755097 C26.6835496,24.755097 27.0417242,24.6113305 27.3068043,24.3277791 L35.6318673,15.4084257 C36.1227226,14.8819929 36.1227226,14.0601348 35.631797,13.5341286 Z M10.6570299,22.4526288 L3.20680161,14.4706017 L10.6570299,6.48864574 C11.1686978,5.94031376 11.1439476,5.07615053 10.6016935,4.55881865 C10.0598613,4.04141566 9.20485482,4.06644326 8.6932572,4.61477524 L0.368194193,13.533702 C-0.122731398,14.0597082 -0.122731398,14.8819929 0.368194193,15.4080702 L8.69367908,24.3274236 C8.95918109,24.6118282 9.3169338,24.7551681 9.67560057,24.7551681 C10.007689,24.7551681 10.3411837,24.631381 10.6016935,24.3824559 C11.1444398,23.8650529 11.1686978,23.0009608 10.6570299,22.4526288 Z M20.1840942,0.0155981164 C19.4474245,-0.09723939 18.7580052,0.414191097 18.6455044,1.15911772 L14.6854744,27.3698413 C14.5729736,28.1151945 15.0792274,28.8119146 15.8163189,28.9256764 C15.8856476,28.9361283 15.9539918,28.9411765 16.0219845,28.9411765 C16.6776536,28.9411765 17.2527439,28.4574754 17.3549087,27.7821568 L21.3149387,1.57143322 C21.4274395,0.82600889 20.9211857,0.129359938 20.1840942,0.0155981164 Z" id="Combined-Shape"></path>
                </g>
            </g>
        </g>
    </g>
</svg>

<svg xmlns="http://www.w3.org/2000/svg" xmlns:xlink="http://www.w3.org/1999/xlink" width="66" height="66"><defs><linearGradient id="c" x1="31.712%" x2="93.74%" y1="17.686%" y2="71.486%"><stop offset="0%" stop-color="#6366F1"/><stop offset="100%"/></linearGradient><filter id="b" width="116.7%" height="116.7%" x="-8.3%" y="-6.7%" filterUnits="objectBoundingBox"><feMorphology in="SourceAlpha" operator="dilate" radius=".5" result="shadowSpreadOuter1"/><feOffset dy="1" in="shadowSpreadOuter1" result="shadowOffsetOuter1"/><feGaussianBlur in="shadowOffsetOuter1" result="shadowBlurOuter1" stdDeviation="1"/><feColorMatrix in="shadowBlurOuter1" values="0 0 0 0 0 0 0 0 0 0 0 0 0 0 0 0 0 0 0.11324369 0"/></filter><circle id="a" cx="30" cy="30" r="30"/></defs><g fill="none" fill-rule="evenodd"><g transform="translate(3 2)"><use xlink:href="#a" fill="#000" filter="url(#b)"/><use xlink:href="#a" fill="#F1F5F9"/></g><path fill="url(#c)" fill-rule="nonzero" d="m35.632 13.534-8.325-8.919a1.339 1.339 0 0 0-1.909-.056 1.376 1.376 0 0 0-.055 1.93l7.451 7.982-7.45 7.982a1.376 1.376 0 0 0 .054 1.93 1.339 1.339 0 0 0 1.909-.055l8.325-8.92c.49-.526.49-1.348 0-1.874Zm-24.975 8.919-7.45-7.982 7.45-7.982a1.376 1.376 0 0 0-.055-1.93 1.34 1.34 0 0 0-1.909.056L.368 13.534a1.377 1.377 0 0 0 0 1.874l8.326 8.92a1.339 1.339 0 0 0 1.908.054 1.376 1.376 0 0 0 .055-1.93ZM20.184.016a1.354 1.354 0 0 0-1.538 1.143l-3.96 26.21a1.363 1.363 0 0 0 1.336 1.572c.656 0 1.23-.484 1.333-1.159l3.96-26.21a1.363 1.363 0 0 0-1.13-1.556Z" transform="translate(15 17.53)"/></g></svg>
